X: 3189
Q: "Strathspey."
M: C
L: 1/16
K: Gm
uD2 |\
vG3vAuB3uc AF3 F3A | G3AB3c (d3g)g4 |\
f3dc3B ABcB AF3 | GABc d3D G6 :|
|: A2 |\
dg3 g3a f3gfc3 |[1 d3g bag^f g6 :|\
[2 fa3 df3 cf3 AF3 |]


